**kern
*clefF4
*k[f#]
*M4/4
=1-
(1D
=2
8C)
4C#
16C-
(8BB-
8AA)
8.GG
=3
4GG
8r
2FF#
16GG
16FF#
=4
2GG-
2GG-
=5
2GG
2FF#
=6
4FF#
16GG
16r
4GG#
16r
8r
16r
=7
(2GG
16GG#)
16GG#
4FF#
8EE
=8
8FF#
4.r
(4FF#
4FF#
=9
16GG)
4AA
2AA
16AA
16BB
16C
=10
8D
2D
8.C
8r
16C
=11
*_